src/public/img/icons/twitter-white.svg

<svg width="20" height="20" viewBox="0 0 20 20" fill="none" xmlns="http://www.w3.org/2000/svg">
<path d="M18 5.42083C17.4116 5.66143 16.7795 5.82399 16.115 5.89747C16.7929 5.52292 17.313 4.92858 17.5582 4.22109C16.924 4.56833 16.2214 4.82064 15.4738 4.95589C14.8748 4.36805 14.0222 4 13.078 4C11.2656 4 9.79565 5.35645 9.79565 7.03024C9.79565 7.26693 9.82524 7.49713 9.88021 7.71952C7.15106 7.59272 4.73337 6.38647 3.11407 4.55403C2.8322 5.00271 2.67013 5.52292 2.67013 6.07695C2.67013 7.12778 3.25007 8.05571 4.13019 8.59868C3.59183 8.58242 3.08588 8.44652 2.64335 8.21957V8.25859C2.64335 9.72624 3.77433 10.9507 5.27667 11.229C5.00044 11.2979 4.71083 11.3343 4.41205 11.3343C4.20065 11.3343 3.99419 11.3161 3.79406 11.281C4.21193 12.484 5.42394 13.3606 6.86074 13.384C5.73681 14.1968 4.32115 14.6813 2.78358 14.6813C2.51863 14.6813 2.2572 14.667 2 14.639C3.45301 15.4993 5.17801 16 7.03127 16C13.0702 16 16.3715 11.3844 16.3715 7.38138C16.3715 7.25133 16.368 7.11997 16.3617 6.98992C17.0029 6.56205 17.5596 6.02948 17.9986 5.42278L18 5.42083Z" fill="white"/>
</svg>

<svg xmlns="http://www.w3.org/2000/svg" width="20" height="20" fill="none">
  <path fill="#fff" d="M18 5.42a6.967 6.967 0 0 1-1.885.477 3.094 3.094 0 0 0 1.443-1.676c-.634.347-1.337.6-2.084.735A3.415 3.415 0 0 0 13.078 4c-1.812 0-3.282 1.356-3.282 3.03 0 .237.03.467.084.69-2.729-.127-5.147-1.334-6.766-3.166a2.851 2.851 0 0 0-.444 1.523c0 1.05.58 1.979 1.46 2.522a3.486 3.486 0 0 1-1.487-.38v.04c0 1.467 1.131 2.692 2.634 2.97a3.569 3.569 0 0 1-1.483.052c.418 1.203 1.63 2.08 3.067 2.103a6.945 6.945 0 0 1-4.077 1.297c-.265 0-.527-.014-.784-.042A9.855 9.855 0 0 0 7.031 16c6.04 0 9.34-4.616 9.34-8.619 0-.13-.003-.261-.01-.391A6.413 6.413 0 0 0 18 5.423V5.42Z"/>
</svg>
